X:1
T:Blessed Jesus, at Your Word
T:Text: Tobias Clausnitzer, 1663; tr. Catherine Winkworth, 1858, alt. Tune: Johann R. Ahle, 1664
T:78 78 88 LIEBSTER JESU www.hymnary.org/text/blessed_jesus_at_thy_word
T:Blessed Jesus, at Your Word
T:This hymn is in the public domain.  You may freely use this score for personal and congregational worship.  If you reproduce the score, please credit Hymnary.org as the source. 
T:This hymn is in the public domain.  You may freely use this score for personal and congregational worship.  If you reproduce the score, please credit Hymnary.org as the source. 
Z:This hymn is in the public domain.  You may freely use this score for personal and congregational worship.  If you reproduce the score, please credit Hymnary.org as the source.
%%score ( 1 2 ) ( 3 4 )
L:1/8
M:4/4
K:G
V:1 treble nm="SOPRANO ALTO" snm="S. A."
V:2 treble 
V:3 bass nm="TENOR BASS" snm="T. B."
V:4 bass 
V:1
"^1""^2""^3" B2 G2 | A2 d2 B2 G2 | A4 G2 G2 | G2 G2 | A2 B2 | A4 G4 B2 G2 | A2 d2 B2 G2 | A4 | %8
w: Bless- ed|Je- sus, at your|word we are|gath- ered|all to|hear you. Let our|hearts and souls be|stirred|
w: All our|knowl- edge, sense, and|sight lie in|deep- est|dark- ness|shroud- ed, till your|Spir- it breaks our|night|
w: Glo- rious|Lord, your- self im-|part; Light of|Light, from|God pro-|ceed- ing, o- pen|lips and ears and|heart;|
 G2 G2 | G2 G2 A2 B2 A4 | G4 D2 D2 | E2 F2 |1 G2 A2 | F2 D2 G2 G2 | A2 B2 c2 B2 | A4 G4 |] %16
w: now to|seek and love and fear|you. By your|gos- pel|pure and|ho- ly, teach us,|Lord, to love you|sole- ly.|
w: with your|beams of truth un- cloud-|ed. You a-|lone to|God can|win us; you must|work all good with-|in us.|
w: help us|by your Spir- it's lead-|ing. Hear the|cry your|church now|rais- es; Lord, ac-|cept our prayers and|prais- es.|
V:2
 D2 D2 | D2 D2 D2 E2 | F4 D2 G2 | E2 G2 | F2 G2 | (G2 F2) G4 D2 D2 | D2 D2 D2 E2 | F4 | D2 G2 | %9
 E2 G2 F2 G2 (G2 F2) | G4 D2 D2 | ^C2 D2 |1 D2 E2 | D2 D2 D2 E2 | F2 G2 G2 G2 | G2- F2 G4 |] %16
V:3
 G,2 G,2 | F,2 A,2 G,2 B,2 | D4 B,2 D2 | C2 D2 | C2 D2 | D4 B,4 G,2 G,2 | F,2 A,2 G,2 B,2 | D4 | %8
 B,2 D2 | C2 D2 C2 D2 D4 | B,4 B,2 A,2 | G,2 A,2 |1 B,2 A,2 | A,2 F,2 G,2 B,2 | D2 D2 E2 D2 | %15
 D4 B,4 |] %16
V:4
 G,,2 B,,2 | D,2 F,2 G,2 E,2 | D,4 G,2 B,2 | C2 B,2 | A,2 G,2 | D,4 G,4 G,,2 B,,2 | %6
 D,2 F,2 G,2 E,2 | D,4 | G,2 B,2 | C2 B,2 A,2 G,2 D,4 | G,4 G,2 F,2 | E,2 D,2 |1 B,,2 ^C,2 | %13
 D,2 D,2 B,,2 E,2 | D,2 G,2 C2 G,2 | (D2 D,2) G,4 |] %16

